X:1
T: Jockston
C:C Sherrit
R:Jig
Q:180
K:A
M:6/8
L:1/16
c2|:e2f2e2 c2B2A2|F4A2 d2e2f2|e2c2A2 e2c2A2|G2B2B2 B2c2d2|
e2f2e2 c2B2A2|F4A2 d2e2f2|e2c2A2 d2B2G2|1A6A4c2:|2A6A4E2|
|:C2E2A2 c2B2A2|d4F2 B2c2d2|c2e2c2 A2c2A2|B2c2A2 G2F2E2|
C2E2A2 c2B2A2|d4F2 B2c2d2|e2c2A2 d2B2G2|1A6A4E2:|2A6A4||
